X: 106
T: Steven Prior's (jig)
N: 190005
C: BB
R: jig
Q: 1/8=340
M: 6/8
L: 1/8
K: G
"G"G,B,D "F"=FEF | "G"G,B,D GFG | "G"G,B,D "F"=FGA | "G"dBc "D"AFD |
"G"G,B,D "F"=FEF | "G"G,B,D GFG | "G"dBc "Am"AGE | "D"DEF "G"G3 :|
"G"gab "Am"age | "G"d^cd "F"=f2 A | "Dm"=FEF AFA | "G"dBc "D"AFD |
"G"gab "Am"age | "G"d^cd "F"=fga | "G"gfd "Am"ecA |"D"dAF "G"G3 :|
%%%%%%%%%%%%%%%%%%%%%%%%%%%%%%%%%%%%%%%%%%%
